; generated by Slic3r 1.2.9 on 2016-12-26 at 23:39:03

; external perimeters extrusion width = 0.50mm
; perimeters extrusion width = 0.72mm
; infill extrusion width = 0.72mm
; solid infill extrusion width = 0.72mm
; top infill extrusion width = 0.72mm

M107
M104 S200 ; set temperature
G28 ; home all axes
G1 Z5 F5000 ; lift nozzle

M109 S200 ; wait for temperature to be reached
G21 ; set units to millimeters
G90 ; use absolute coordinates
M82 ; use absolute distances for extrusion
G92 E0
G1 Z0.350 F7800.000
G1 E-2.00000 F2400.00000
G92 E0
G1 X76.529 Y104.881 F7800.000
G1 E2.00000 F2400.00000
G1 X78.680 Y104.086 E2.07096 F1800.000
G1 X79.865 Y103.979 E2.10778
G1 X120.090 Y103.979 E3.35238
G1 X122.349 Y104.376 E3.42334
G1 X124.337 Y105.519 E3.49431 F1800.000
G1 X125.816 Y107.272 E3.56527
G1 X126.609 Y109.424 E3.63623
G1 X126.715 Y110.599 E3.67271
G1 X126.724 Y121.957 E4.02417
G1 X126.329 Y124.216 E4.09513
G1 X125.187 Y126.206 E4.16609
G1 X123.436 Y127.686 E4.23706
G1 X121.284 Y128.481 E4.30802
G1 X120.105 Y128.588 E4.34467
G1 X79.880 Y128.621 E5.58927
G1 X77.621 Y128.225 E5.66023
G1 X75.632 Y127.084 E5.73119
G1 X74.151 Y125.332 E5.80216
G1 X73.357 Y123.181 E5.87312
G1 X73.250 Y122.001 E5.90977
G1 X73.241 Y110.609 E6.26224
G1 X73.636 Y108.350 E6.33320
G1 X74.777 Y106.361 E6.40417
G1 X76.472 Y104.929 E6.47281
G1 E4.47281 F2400.00000
G92 E0
G1 X118.498 Y120.364 F7800.000
G1 E2.00000 F2400.00000
G1 X81.473 Y120.395 E3.14560 F1800.000
G1 X81.467 Y112.204 E3.39904
G1 X118.492 Y112.204 E4.54464
G1 X118.498 Y120.289 E4.79481
G1 X119.124 Y120.989 F7800.000
G1 X80.849 Y121.020 E5.97908 F1800.000
G1 X80.841 Y111.579 E6.27120
G1 X119.116 Y111.579 E7.45548
G1 X119.124 Y120.914 E7.74431
G1 X119.749 Y121.613 F7800.000
G1 X80.224 Y121.645 E8.96725 F1800.000
G1 X80.216 Y110.954 E9.29805
G1 X119.740 Y110.954 E10.52099
G1 X119.749 Y121.538 E10.84848
G1 X119.316 Y121.363 F7800.000
G1 X118.113 Y112.887 F7800.000
G1 X117.808 Y112.582 E10.86204 F1800.000
G1 X116.911 Y112.582 E10.89025
G1 X118.114 Y113.786 E10.94374
G1 X118.115 Y114.684 E10.97197
G1 X116.013 Y112.582 E11.06538
G1 X115.115 Y112.582 E11.09359
G1 X118.116 Y115.583 E11.22693
G1 X118.116 Y116.481 E11.25516
G1 X114.218 Y112.582 E11.42843
G1 X113.320 Y112.582 E11.45664
G1 X118.117 Y117.379 E11.66984
G1 X118.118 Y118.278 E11.69807
G1 X112.423 Y112.582 E11.95119
G1 X111.525 Y112.582 E11.97940
G1 X118.119 Y119.176 E12.27244
G1 X118.031 Y119.986 E12.29806
G1 X110.627 Y112.582 E12.62712
G1 X109.730 Y112.582 E12.65533
G1 X117.134 Y119.987 E12.98442
G1 X116.238 Y119.988 E13.01261
G1 X108.832 Y112.582 E13.34173
G1 X107.935 Y112.582 E13.36994
G1 X115.341 Y119.988 E13.69910
G1 X114.444 Y119.989 E13.72729
G1 X107.037 Y112.582 E14.05648
G1 X106.139 Y112.582 E14.08469
G1 X113.547 Y119.990 E14.41392
G1 X112.650 Y119.991 E14.44210
G1 X105.242 Y112.582 E14.77136
G1 X104.344 Y112.582 E14.79957
G1 X111.753 Y119.991 E15.12886
G1 X110.856 Y119.992 E15.15704
G1 X103.447 Y112.582 E15.48637
G1 X102.549 Y112.582 E15.51457
G1 X109.959 Y119.993 E15.84393
G1 X109.063 Y119.994 E15.87212
G1 X101.651 Y112.582 E16.20150
G1 X100.754 Y112.582 E16.22971
G1 X108.166 Y119.994 E16.55913
G1 X107.269 Y119.995 E16.58732
G1 X99.856 Y112.582 E16.91677
G1 X98.959 Y112.582 E16.94498
G1 X106.372 Y119.996 E17.27447
G1 X105.475 Y119.996 E17.30265
G1 X98.061 Y112.582 E17.63217
G1 X97.163 Y112.582 E17.66038
G1 X104.578 Y119.997 E17.98993
G1 X103.681 Y119.998 E18.01812
G1 X96.266 Y112.582 E18.34770
G1 X95.368 Y112.582 E18.37591
G1 X102.784 Y119.999 E18.70552
G1 X101.888 Y119.999 E18.73371
G1 X94.471 Y112.582 E19.06336
G1 X93.573 Y112.582 E19.09157
G1 X100.991 Y120.000 E19.42125
G1 X100.094 Y120.001 E19.44943
G1 X92.675 Y112.582 E19.77915
G1 X91.778 Y112.582 E19.80736
G1 X99.197 Y120.002 E20.13710
G1 X98.300 Y120.002 E20.16529
G1 X90.880 Y112.582 E20.49507
G1 X89.983 Y112.582 E20.52328
G1 X97.403 Y120.003 E20.85309
G1 X96.506 Y120.004 E20.88127
G1 X89.085 Y112.582 E21.21112
G1 X88.187 Y112.582 E21.23933
G1 X95.609 Y120.005 E21.56920
G1 X94.713 Y120.005 E21.59739
G1 X87.290 Y112.582 E21.92730
G1 X86.392 Y112.582 E21.95551
G1 X93.816 Y120.006 E22.28545
G1 X92.919 Y120.007 E22.31364
G1 X85.495 Y112.582 E22.64361
G1 X84.597 Y112.582 E22.67182
G1 X92.022 Y120.007 E23.00183
G1 X91.125 Y120.008 E23.03001
G1 X83.699 Y112.582 E23.36005
G1 X82.802 Y112.582 E23.38826
G1 X90.228 Y120.009 E23.71833
G1 X89.331 Y120.010 E23.74652
G1 X81.904 Y112.582 E24.07662
G1 X81.846 Y113.422 E24.10307
G1 X88.435 Y120.010 E24.39589
G1 X87.538 Y120.011 E24.42408
G1 X81.847 Y114.320 E24.67700
G1 X81.848 Y115.219 E24.70523
G1 X86.641 Y120.012 E24.91826
G1 X85.744 Y120.013 E24.94645
G1 X81.848 Y116.117 E25.11958
G1 X81.849 Y117.015 E25.14781
G1 X84.847 Y120.013 E25.28106
G1 X83.950 Y120.014 E25.30924
G1 X81.850 Y117.914 E25.40259
G1 X81.851 Y118.812 E25.43082
G1 X83.053 Y120.015 E25.48428
G1 X82.156 Y120.016 E25.51246
G1 X81.851 Y119.710 E25.52602
G1 Z0.650 F7800.000
G1 X118.952 Y120.514 F7800.000
G1 X81.017 Y120.545 E26.57976 F3600.000
G1 X81.010 Y112.054 E26.81564
G1 X118.945 Y112.054 E27.86938
G1 X118.952 Y120.439 E28.10231
G1 X119.607 Y121.168 F7800.000
G1 X80.363 Y121.200 E29.19241 F3600.000
G1 X80.355 Y111.399 E29.46466
G1 X119.599 Y111.399 E30.55476
G1 X119.607 Y121.093 E30.82404
G1 X120.152 Y121.713 F7800.000
G1 X79.819 Y121.746 E31.56974 F1800.000
G1 X79.810 Y110.854 E31.77111
G1 X120.143 Y110.854 E32.51681
G1 X120.152 Y121.638 E32.71618
G1 X119.719 Y121.463 F7800.000
G1 E30.71618 F2400.00000
G92 E0
G1 X118.236 Y120.117 F7800.000
G1 E2.00000 F2400.00000
G1 X118.554 Y119.799 E2.01267 F1200.000
G1 X118.553 Y118.860 E2.03916
G1 X117.295 Y120.118 E2.08933
G1 X116.355 Y120.119 E2.11587
G1 X118.552 Y117.921 E2.20353
G1 X118.552 Y116.982 E2.23002
G1 X115.414 Y120.119 E2.35518
G1 X114.473 Y120.120 E2.38171
G1 X118.551 Y116.043 E2.54437
G1 X118.550 Y115.104 E2.57086
G1 X113.533 Y120.121 E2.77101
G1 X112.592 Y120.122 E2.79754
G1 X118.549 Y114.165 E3.03519
G1 X118.548 Y113.225 E3.06168
G1 X111.651 Y120.123 E3.33682
G1 X110.711 Y120.123 E3.36335
G1 X118.383 Y112.451 E3.66941
G1 X117.443 Y112.451 E3.69592
G1 X109.770 Y120.124 E4.00201
G1 X108.829 Y120.125 E4.02855
G1 X116.503 Y112.451 E4.33467
G1 X115.563 Y112.451 E4.36118
G1 X107.889 Y120.126 E4.66733
G1 X106.948 Y120.126 E4.69387
G1 X114.623 Y112.451 E5.00005
G1 X113.683 Y112.451 E5.02656
G1 X106.007 Y120.127 E5.33278
G1 X105.066 Y120.128 E5.35931
G1 X112.743 Y112.451 E5.66555
G1 X111.803 Y112.451 E5.69207
G1 X104.126 Y120.129 E5.99834
G1 X103.185 Y120.129 E6.02488
G1 X110.863 Y112.451 E6.33118
G1 X109.924 Y112.451 E6.35769
G1 X102.244 Y120.130 E6.66403
G1 X101.304 Y120.131 E6.69056
G1 X108.984 Y112.451 E6.99693
G1 X108.044 Y112.451 E7.02344
G1 X100.363 Y120.132 E7.32984
G1 X99.422 Y120.133 E7.35638
G1 X107.104 Y112.451 E7.66280
G1 X106.164 Y112.451 E7.68932
G1 X98.482 Y120.133 E7.99577
G1 X97.541 Y120.134 E8.02231
G1 X105.224 Y112.451 E8.32880
G1 X104.284 Y112.451 E8.35531
G1 X96.600 Y120.135 E8.66183
G1 X95.660 Y120.136 E8.68836
G1 X103.344 Y112.451 E8.99491
G1 X102.404 Y112.451 E9.02143
G1 X94.719 Y120.136 E9.32801
G1 X93.778 Y120.137 E9.35454
G1 X101.464 Y112.451 E9.66116
G1 X100.524 Y112.451 E9.68767
G1 X92.837 Y120.138 E9.99431
G1 X91.897 Y120.139 E10.02085
G1 X99.584 Y112.451 E10.32752
G1 X98.644 Y112.451 E10.35403
G1 X90.956 Y120.139 E10.66074
G1 X90.015 Y120.140 E10.68727
G1 X97.705 Y112.451 E10.99400
G1 X96.765 Y112.451 E11.02052
G1 X89.075 Y120.141 E11.32728
G1 X88.134 Y120.142 E11.35382
G1 X95.825 Y112.451 E11.66061
G1 X94.885 Y112.451 E11.68713
G1 X87.193 Y120.143 E11.99395
G1 X86.253 Y120.143 E12.02049
G1 X93.945 Y112.451 E12.32734
G1 X93.005 Y112.451 E12.35386
G1 X85.312 Y120.144 E12.66075
G1 X84.371 Y120.145 E12.68728
G1 X92.065 Y112.451 E12.99420
G1 X91.125 Y112.451 E13.02071
G1 X83.430 Y120.146 E13.32766
G1 X82.490 Y120.146 E13.35420
G1 X90.185 Y112.451 E13.66118
G1 X89.245 Y112.451 E13.68769
G1 X81.549 Y120.147 E13.99470
G1 X81.414 Y119.343 E14.01771
G1 X88.305 Y112.451 E14.29263
G1 X87.365 Y112.451 E14.31914
G1 X81.413 Y118.404 E14.55660
G1 X81.412 Y117.464 E14.58309
G1 X86.425 Y112.451 E14.78309
G1 X85.486 Y112.451 E14.80960
G1 X81.411 Y116.525 E14.97213
G1 X81.411 Y115.586 E14.99862
G1 X84.546 Y112.451 E15.12368
G1 X83.606 Y112.451 E15.15020
G1 X81.410 Y114.647 E15.23780
G1 X81.409 Y113.708 E15.26429
G1 X82.666 Y112.451 E15.31442
G1 X81.726 Y112.451 E15.34094
G1 X81.408 Y112.769 E15.35361
G1 Z0.950 F7800.000
G1 X119.071 Y120.514 F7800.000
G1 X80.909 Y120.545 E16.41366 F3600.000
G1 X80.902 Y112.054 E16.64954
G1 X119.064 Y112.054 E17.70960
G1 X119.071 Y120.439 E17.94253
G1 X119.726 Y121.168 F7800.000
G1 X80.255 Y121.200 E19.03895 F3600.000
G1 X80.247 Y111.399 E19.31120
G1 X119.718 Y111.399 E20.40762
G1 X119.726 Y121.093 E20.67690
G1 X120.272 Y121.713 F7800.000
G1 X79.710 Y121.746 E21.42680 F1800.000
G1 X79.701 Y110.854 E21.62817
G1 X120.263 Y110.854 E22.37808
G1 X120.271 Y121.638 E22.57745
G1 X119.838 Y121.463 F7800.000
G1 X118.548 Y112.769 F7800.000
G1 X118.230 Y112.451 E22.59013 F1200.000
G1 X117.290 Y112.451 E22.61666
G1 X118.549 Y113.710 E22.66690
G1 X118.549 Y114.651 E22.69345
G1 X116.350 Y112.451 E22.78125
G1 X115.409 Y112.451 E22.80778
G1 X118.550 Y115.592 E22.93313
G1 X118.551 Y116.533 E22.95968
G1 X114.469 Y112.451 E23.12259
G1 X113.529 Y112.451 E23.14912
G1 X118.552 Y117.474 E23.34958
G1 X118.552 Y118.415 E23.37614
G1 X112.588 Y112.451 E23.61416
G1 X111.648 Y112.451 E23.64069
G1 X118.553 Y119.356 E23.91627
G1 X118.374 Y120.117 E23.93833
G1 X110.708 Y112.451 E24.24427
G1 X109.767 Y112.451 E24.27081
G1 X117.434 Y120.118 E24.57678
G1 X116.495 Y120.119 E24.60329
G1 X108.827 Y112.451 E24.90930
G1 X107.887 Y112.451 E24.93583
G1 X115.555 Y120.120 E25.24187
G1 X114.616 Y120.120 E25.26838
G1 X106.946 Y112.451 E25.57445
G1 X106.006 Y112.451 E25.60098
G1 X113.676 Y120.121 E25.90708
G1 X112.737 Y120.122 E25.93359
G1 X105.066 Y112.451 E26.23972
G1 X104.126 Y112.451 E26.26625
G1 X111.797 Y120.123 E26.57241
G1 X110.858 Y120.123 E26.59892
G1 X103.185 Y112.451 E26.90511
G1 X102.245 Y112.451 E26.93165
G1 X109.918 Y120.124 E27.23787
G1 X108.979 Y120.125 E27.26438
G1 X101.305 Y112.451 E27.57063
G1 X100.364 Y112.451 E27.59716
G1 X108.039 Y120.126 E27.90344
G1 X107.099 Y120.126 E27.92996
G1 X99.424 Y112.451 E28.23627
G1 X98.484 Y112.451 E28.26280
G1 X106.160 Y120.127 E28.56914
G1 X105.220 Y120.128 E28.59566
G1 X97.543 Y112.451 E28.90203
G1 X96.603 Y112.451 E28.92856
G1 X104.281 Y120.129 E29.23497
G1 X103.341 Y120.130 E29.26148
G1 X95.663 Y112.451 E29.56791
G1 X94.722 Y112.451 E29.59445
G1 X102.402 Y120.130 E29.90091
G1 X101.462 Y120.131 E29.92743
G1 X93.782 Y112.451 E30.23392
G1 X92.842 Y112.451 E30.26046
G1 X100.523 Y120.132 E30.56698
G1 X99.583 Y120.133 E30.59349
G1 X91.902 Y112.451 E30.90005
G1 X90.961 Y112.451 E30.92659
G1 X98.644 Y120.133 E31.23317
G1 X97.704 Y120.134 E31.25969
G1 X90.021 Y112.451 E31.56630
G1 X89.081 Y112.451 E31.59284
G1 X96.765 Y120.135 E31.89949
G1 X95.825 Y120.136 E31.92600
G1 X88.140 Y112.451 E32.23268
G1 X87.200 Y112.451 E32.25921
G1 X94.885 Y120.136 E32.56592
G1 X93.946 Y120.137 E32.59244
G1 X86.260 Y112.451 E32.89918
G1 X85.319 Y112.451 E32.92571
G1 X93.006 Y120.138 E33.23248
G1 X92.067 Y120.139 E33.25900
G1 X84.379 Y112.451 E33.56580
G1 X83.439 Y112.451 E33.59233
G1 X91.127 Y120.140 E33.89916
G1 X90.188 Y120.140 E33.92568
G1 X82.498 Y112.451 E34.23254
G1 X81.558 Y112.451 E34.25907
G1 X89.248 Y120.141 E34.56597
G1 X88.309 Y120.142 E34.59248
G1 X81.409 Y113.242 E34.86784
G1 X81.410 Y114.183 E34.89439
G1 X87.369 Y120.143 E35.13223
G1 X86.430 Y120.143 E35.15874
G1 X81.410 Y115.124 E35.35904
G1 X81.411 Y116.065 E35.38560
G1 X85.490 Y120.144 E35.54838
G1 X84.550 Y120.145 E35.57489
G1 X81.412 Y117.006 E35.70015
G1 X81.413 Y117.947 E35.72670
G1 X83.611 Y120.146 E35.81443
G1 X82.671 Y120.146 E35.84095
G1 X81.413 Y118.888 E35.89115
G1 X81.414 Y119.830 E35.91770
G1 X81.732 Y120.147 E35.93038
M106 S242.25
G1 Z1.250 F7800.000
G1 X119.092 Y120.514 F7800.000
G1 X80.883 Y120.545 E36.99174 F3600.000
G1 X80.876 Y112.054 E37.22762
G1 X119.085 Y112.054 E38.28898
G1 X119.092 Y120.439 E38.52191
G1 X119.747 Y121.168 F7800.000
G1 X80.229 Y121.200 E39.61963 F3600.000
G1 X80.221 Y111.399 E39.89189
G1 X119.739 Y111.399 E40.98961
G1 X119.747 Y121.093 E41.25888
G1 X120.293 Y121.713 F7800.000
G1 X79.685 Y121.746 E42.00965 F1800.000
G1 X79.676 Y110.854 E42.21102
G1 X120.284 Y110.854 E42.96180
G1 X120.293 Y121.638 E43.16117
G1 X119.859 Y121.463 F7800.000
G1 X118.535 Y119.958 F7800.000
G1 X116.643 Y119.960 E43.21373 F4800.000
G1 X116.170 Y118.194 E43.26452
G1 X118.532 Y115.832 E43.35731
G1 X118.535 Y119.958 E43.47194
G1 X118.531 Y114.361 F7800.000
G1 X118.531 Y114.907 E43.48709 F4800.000
G1 X115.707 Y117.731 E43.59804
G1 X112.787 Y116.949 E43.68201
G1 X109.848 Y119.888 E43.79747
G1 X109.869 Y119.965 E43.79970
G1 X105.138 Y119.969 E43.93110
G1 X106.465 Y118.643 E43.98321
G1 X109.385 Y119.425 E44.06718
G1 X112.324 Y116.486 E44.18265
G1 X111.542 Y113.566 E44.26662
G1 X112.498 Y112.610 E44.30417
G1 X118.062 Y112.610 E44.45872
G1 X118.531 Y114.361 E44.50908
G1 X111.079 Y113.103 F7800.000
G1 X109.239 Y112.610 E44.56200 F4800.000
G1 X111.572 Y112.610 E44.62682
G1 X111.079 Y113.103 E44.64619
G1 X105.220 Y115.260 F7800.000
G1 X106.002 Y118.180 E44.73016 F4800.000
G1 X104.212 Y119.970 E44.80048
G1 X99.580 Y119.974 E44.92914
G1 X99.680 Y119.874 E44.93307
G1 X98.898 Y116.954 E45.01704
G1 X101.837 Y114.015 E45.13251
G1 X104.757 Y114.797 E45.21648
G1 X106.944 Y112.610 E45.30239
G1 X107.870 Y112.610 E45.32810
G1 X105.220 Y115.260 E45.43220
G1 X101.374 Y113.552 F7800.000
G1 X98.435 Y116.491 E45.54766 F4800.000
G1 X95.515 Y115.708 E45.63163
G1 X92.576 Y118.648 E45.74710
G1 X92.933 Y119.979 E45.78539
G1 X86.611 Y119.984 E45.96098
G1 X89.193 Y117.402 E46.06240
G1 X92.113 Y118.185 E46.14637
G1 X95.052 Y115.246 E46.26184
G1 X94.346 Y112.610 E46.33764
G1 X101.122 Y112.610 E46.52585
G1 X101.374 Y113.552 E46.55294
G1 X87.948 Y114.020 F7800.000
G1 X88.730 Y116.940 E46.63691 F4800.000
G1 X85.791 Y119.879 E46.75237
G1 X82.871 Y119.096 E46.83635
G1 X81.979 Y119.988 E46.87137
G1 X81.439 Y119.988 E46.88638
G1 X81.439 Y119.603 E46.89709
G1 X82.408 Y118.634 E46.93517
G1 X81.626 Y115.714 E47.01915
G1 X84.565 Y112.774 E47.13461
G1 X87.485 Y113.557 E47.21858
G1 X88.432 Y112.610 E47.25578
G1 X89.358 Y112.610 E47.28149
G1 X87.948 Y114.020 E47.33687
G1 X81.435 Y114.979 F7800.000
G1 X81.433 Y112.610 E47.40268 F4800.000
G1 X83.804 Y112.610 E47.46854
G1 X81.435 Y114.979 E47.56161
G1 Z1.550 F7800.000
G1 X119.092 Y120.514 F7800.000
G1 X80.883 Y120.545 E48.62297 F3600.000
G1 X80.877 Y112.054 E48.85885
G1 X119.085 Y112.054 E49.92021
G1 X119.092 Y120.439 E50.15314
G1 X119.747 Y121.168 F7800.000
G1 X80.230 Y121.200 E51.25086 F3600.000
G1 X80.222 Y111.399 E51.52311
G1 X119.739 Y111.399 E52.62083
G1 X119.747 Y121.093 E52.89011
G1 X120.293 Y121.475 F7800.000
G1 X120.293 Y121.713 E52.89450 F1800.000
G1 X79.685 Y121.746 E53.64528
G1 X79.676 Y110.854 E53.84665
G1 X120.284 Y110.854 E54.59742
G1 X120.293 Y121.400 E54.79239
G1 X120.087 Y121.594 F7800.000
G1 X118.530 Y113.094 F7800.000
G1 X118.536 Y119.958 E54.98307 F4800.000
G1 X116.982 Y119.959 E55.02623
G1 X116.339 Y117.562 E55.09519
G1 X118.477 Y115.424 E55.17916
G1 X117.723 Y112.610 E55.26009
G1 X118.400 Y112.610 E55.27891
G1 X118.530 Y113.094 E55.29283
G1 X111.711 Y112.934 F7800.000
G1 X112.787 Y116.949 E55.40829 F4800.000
G1 X115.707 Y117.731 E55.49226
G1 X116.304 Y119.960 E55.55636
G1 X110.207 Y119.965 E55.72572
G1 X110.017 Y119.256 E55.74612
G1 X112.155 Y117.118 E55.83010
G1 X111.079 Y113.103 E55.94556
G1 X109.239 Y112.610 E55.99848
G1 X112.035 Y112.610 E56.07615
G1 X111.711 Y112.934 E56.08886
G1 X105.389 Y114.628 F7800.000
G1 X106.465 Y118.643 E56.20433 F4800.000
G1 X109.385 Y119.425 E56.28830
G1 X109.530 Y119.966 E56.30384
G1 X104.675 Y119.969 E56.43870
G1 X105.833 Y118.812 E56.48417
G1 X104.757 Y114.797 E56.59963
G1 X101.837 Y114.015 E56.68360
G1 X101.461 Y112.610 E56.72400
G1 X107.407 Y112.610 E56.88917
G1 X105.389 Y114.628 E56.96843
G1 X101.205 Y114.184 F7800.000
